X:354
T: Nong fu yuan
N: C1295
O: China,Yunnan
S: MM, ZHONGGUO MINGE XUAN S.162]
N: Pinyin-Text der ersten Strophe vorhanden!
R: Xiaodiao. Suku]
M: 2/4
L: 1/16
K: F
c2cAd4 | d3AG4 | A2d2d2cA | G2G2F2DF | G8 |
c2AGF2FG | A6c2 | A3cG2z2 | G3FD2z2 |
A2d2d2cA | G8 | c6F2 | G3FD2z2 |
D3CD2z2 | D3CF2z2 | D3CD4

@@@ Tune index: 6355
